icons/parking-box-line.svg

<svg viewBox="0 0 24 24" fill="currentColor" xmlns="http://www.w3.org/2000/svg">
    <path d="M4 3H20C20.5523 3 21 3.44772 21 4V20C21 20.5523 20.5523 21 20 21H4C3.44772 21 3 20.5523 3 20V4C3 3.44772 3.44772 3 4 3ZM5 5V19H19V5H5ZM9 7H12.5C14.433 7 16 8.567 16 10.5C16 12.433 14.433 14 12.5 14H11V17H9V7ZM11 9V12H12.5C13.3284 12 14 11.3284 14 10.5C14 9.67157 13.3284 9 12.5 9H11Z"/>
</svg>

<svg xmlns="http://www.w3.org/2000/svg" viewBox="0 0 24 24">
    <g>
        <path fill="none" d="M0 0h24v24H0z"/>
        <path d="M4 3h16a1 1 0 0 1 1 1v16a1 1 0 0 1-1 1H4a1 1 0 0 1-1-1V4a1 1 0 0 1 1-1zm1 2v14h14V5H5zm4 2h3.5a3.5 3.5 0 0 1 0 7H11v3H9V7zm2 2v3h1.5a1.5 1.5 0 0 0 0-3H11z"/>
    </g>
</svg>
